X: 16
T: Fox and Geese
M:6/8
L:1/8
S:David Dolby tradtunes 2011-8-29
B:John Offord's "John of the Greeny Cheshire Way", p.111, 1985 edition
K:G
|: G2d dcB | A2B c3  | B2G GAB | A2G FED | G2d dcB | A2B c3  | B2G c2B | AGF G3 :|
|: F2G AFD | F2G ABc | dBG dBG | dBG dBG | F2G AFD | F2G ABc | dBG c2B | AGF G3 :|


